wp-content/themes/sayenko-erickson/public/images/careers/005-helicopter-2.svg

<?xml version="1.0" encoding="UTF-8"?>
<svg width="77px" height="77px" viewBox="0 0 77 77" version="1.1" xmlns="http://www.w3.org/2000/svg" xmlns:xlink="http://www.w3.org/1999/xlink">
    <!-- Generator: Sketch 62 (91390) - https://sketch.com -->
    <title>005-helicopter-2</title>
    <desc>Created with Sketch.</desc>
    <g id="Mockups" stroke="none" stroke-width="1" fill="none" fill-rule="evenodd">
        <g id="Career-Index" transform="translate(-683.000000, -896.000000)" fill="#E9731F" fill-rule="nonzero" stroke="#FFFFFF" stroke-width="0.7">
            <g id="005-helicopter-2" transform="translate(684.000000, 897.000000)">
                <path d="M64.348662,0.021903 C58.329894,0.021903 53.433324,4.918473 53.433324,10.937241 C53.433324,11.345754 53.457873,11.748681 53.501826,12.145728 L41.963355,12.145728 C40.962726,12.145728 39.990615,11.789841 39.22842,11.14554 L39.194904,11.117022 C37.868229,9.995559 36.180963,9.377865 34.444158,9.377865 L26.742534,9.377865 L26.742534,6.960891 L48.183366,6.960891 C49.044639,6.960891 49.742742,6.262641 49.742742,5.401515 C49.742742,4.540389 49.044639,3.842139 48.183366,3.842139 L2.183097,3.842139 C1.321824,3.842139 0.623721,4.540389 0.623721,5.401515 C0.623721,6.262641 1.321824,6.960891 2.183097,6.960891 L23.623929,6.960891 L23.623929,9.377865 L19.554087,9.377865 C12.931296,9.377865 7.384104,14.219163 6.455064,20.715681 C6.366129,20.911779 6.315414,22.788234 6.315414,22.788234 C6.315414,26.571573 9.3933,29.649312 13.176492,29.649312 L16.529121,29.649312 L16.529121,32.690007 L6.267786,32.690007 C4.531422,32.690007 3.118752,31.27719 3.118752,29.540973 L3.118752,29.493345 C3.118752,28.632219 2.420649,27.933969 1.559376,27.933969 C0.698103,27.933969 0,28.632219 0,29.493345 L0,29.540973 C0,32.99709 2.811669,35.808759 6.267786,35.808759 L23.623929,35.808759 L23.623929,48.315372 L4.150692,59.474583 C3.912111,59.572926 3.697785,59.728011 3.531675,59.933664 C3.235764,60.299988 3.120957,60.780384 3.219594,61.240788 L3.246348,61.365591 C4.067784,65.197293 6.198549,68.664435 9.246153,71.127861 C12.293757,73.591434 16.13031,74.948097 20.049036,74.948097 L30.317574,74.948097 C34.2363,74.948097 38.073,73.591434 41.120457,71.127861 C44.168061,68.664288 46.298826,65.19744 47.120262,61.365591 L47.147016,61.240788 C47.245653,60.780384 47.130993,60.299841 46.834935,59.933664 C46.668678,59.728011 46.454352,59.572926 46.215918,59.474583 L26.74224,48.315372 L26.74224,35.808759 L40.698273,35.808759 C41.559546,35.808759 42.257649,35.110509 42.257649,34.249383 C42.257649,33.388257 41.559546,32.690007 40.698273,32.690007 L31.810065,32.690007 L31.810065,29.649312 L34.538973,29.649312 C38.322165,29.649312 41.400051,26.571426 41.400051,22.788234 L41.400051,21.501837 L61.60035,21.501837 C62.478675,21.730422 63.399336,21.852726 64.348221,21.852726 C70.366989,21.852726 75.263559,16.956156 75.263559,10.937388 C75.263559,4.91862 70.36743,0.021903 64.348662,0.021903 Z M19.554087,12.496617 L19.569669,12.496617 L19.569669,17.603397 C19.569669,18.814089 18.584769,19.798989 17.374077,19.798989 L9.829743,19.798989 C11.051313,15.534519 14.965776,12.496617 19.554087,12.496617 Z M30.317574,71.829345 L20.049036,71.829345 C14.078043,71.829345 8.767374,67.988529 6.796839,62.473383 L43.569771,62.473383 C41.599089,67.988529 36.288567,71.829345 30.317574,71.829345 Z M39.7341,59.354631 L10.63251,59.354631 L25.183305,51.016056 L39.7341,59.354631 Z M28.691754,32.690007 L19.647579,32.690007 L19.647579,29.649312 L28.691754,29.649312 L28.691754,32.690007 Z M39.840969,18.383085 C38.979696,18.383085 38.281593,19.081335 38.281593,19.942461 L38.281593,22.788234 C38.281593,24.851673 36.602853,26.530707 34.53912,26.530707 L13.176345,26.530707 C11.156124,26.530707 9.504579,24.921645 9.436077,22.917741 L17.374077,22.917741 C20.304375,22.917741 22.688274,20.533842 22.688274,17.603544 L22.688274,12.496764 L34.444158,12.496764 C35.444787,12.496764 36.416898,12.852651 37.179093,13.496952 L37.212609,13.52547 C38.539284,14.646933 40.22655,15.264627 41.963355,15.264627 L54.329877,15.264627 C54.831441,16.421664 55.528221,17.474331 56.377734,18.383232 L39.840969,18.383232 L39.840969,18.383085 Z M64.348662,18.733974 C60.049647,18.733974 56.551929,15.236403 56.551929,10.937241 C56.551929,6.638226 60.0495,3.140508 64.348662,3.140508 C68.647824,3.140508 72.145395,6.638079 72.145395,10.937241 C72.145395,15.236256 68.647677,18.733974 64.348662,18.733974 Z" id="Shape"></path>
                <path d="M64.348662,6.25926 C61.769253,6.25926 59.670681,8.357832 59.670681,10.937241 C59.670681,13.51665 61.769253,15.615222 64.348662,15.615222 C66.928071,15.615222 69.026643,13.51665 69.026643,10.937241 C69.026643,8.357832 66.927924,6.25926 64.348662,6.25926 Z M64.348662,12.496617 C63.488859,12.496617 62.789286,11.797044 62.789286,10.937241 C62.789286,10.077438 63.488859,9.377865 64.348662,9.377865 C65.208465,9.377865 65.908038,10.077438 65.908038,10.937241 C65.908038,11.797044 65.208465,12.496617 64.348662,12.496617 Z" id="Shape"></path>
                <path d="M33.642714,18.266073 L33.33078,18.266073 C32.469507,18.266073 31.771404,18.964323 31.771404,19.825449 C31.771404,20.686575 32.469507,21.384825 33.33078,21.384825 L33.642714,21.384825 C34.503987,21.384825 35.20209,20.686575 35.20209,19.825449 C35.201943,18.964323 34.50384,18.266073 33.642714,18.266073 Z" id="Path"></path>
            </g>
        </g>
    </g>
</svg>

<svg width="77" height="77" viewBox="0 0 77 77" version="1.1" xmlns="http://www.w3.org/2000/svg"><g id="Mockups" stroke="none" stroke-width="1" fill="none" fill-rule="evenodd"><g id="Career-Index" transform="translate(-683 -896)" fill="#E9731F" fill-rule="nonzero" stroke="#FFF" stroke-width=".7"><g id="005-helicopter-2" transform="translate(684 897)"><path d="M64.349.022c-6.02 0-10.916 4.896-10.916 10.915 0 .409.025.812.069 1.209H41.963c-1 0-1.972-.356-2.735-1l-.033-.029a7.369 7.369 0 0 0-4.75-1.74h-7.702V6.962h21.44a1.56 1.56 0 0 0 0-3.119h-46a1.56 1.56 0 0 0 0 3.119h21.44v2.417h-4.069A13.201 13.201 0 0 0 6.455 20.716c-.089.196-.14 2.072-.14 2.072a6.869 6.869 0 0 0 6.861 6.861h3.353v3.041H6.268a3.153 3.153 0 0 1-3.15-3.149v-.048a1.56 1.56 0 0 0-3.118 0v.048a6.275 6.275 0 0 0 6.268 6.268h17.356v12.506L4.15 59.475a1.555 1.555 0 0 0-.931 1.766l.026.125a17.24 17.24 0 0 0 6 9.762 17.239 17.239 0 0 0 10.803 3.82h10.269a17.24 17.24 0 0 0 10.802-3.82 17.24 17.24 0 0 0 6-9.762l.027-.125a1.56 1.56 0 0 0-.931-1.766l-19.474-11.16V35.81h13.956a1.56 1.56 0 0 0 0-3.119H31.81v-3.04h2.729a6.869 6.869 0 0 0 6.861-6.862v-1.286h20.2c.879.228 1.8.35 2.748.35 6.019 0 10.916-4.896 10.916-10.915C75.264 4.92 70.367.022 64.349.022zM19.554 12.497h.016v5.106a2.198 2.198 0 0 1-2.196 2.196H9.83a10.094 10.094 0 0 1 9.724-7.302zm10.764 59.332H20.049c-5.971 0-11.282-3.84-13.252-9.356H43.57c-1.97 5.516-7.281 9.356-13.252 9.356zm9.416-12.474H10.633l14.55-8.339 14.551 8.339zM28.692 32.69h-9.044v-3.04h9.044v3.04zM39.84 18.383a1.56 1.56 0 0 0-1.56 1.56v2.845a3.747 3.747 0 0 1-3.742 3.743H13.176a3.747 3.747 0 0 1-3.74-3.613h7.938a5.32 5.32 0 0 0 5.314-5.314v-5.107h11.756c1 0 1.973.356 2.735 1l.034.028a7.369 7.369 0 0 0 4.75 1.74H54.33a10.945 10.945 0 0 0 2.048 3.118H39.84h0zm24.508.351c-4.3 0-7.797-3.498-7.797-7.797 0-4.299 3.498-7.796 7.797-7.796 4.299 0 7.796 3.497 7.796 7.796 0 4.3-3.497 7.797-7.796 7.797z" id="Shape"/><path d="M64.349 6.26a4.683 4.683 0 0 0-4.678 4.677 4.683 4.683 0 0 0 4.678 4.678 4.683 4.683 0 0 0 4.678-4.678 4.683 4.683 0 0 0-4.678-4.678zm0 6.237c-.86 0-1.56-.7-1.56-1.56 0-.86.7-1.56 1.56-1.56a1.561 1.561 0 0 1-.001 3.12z" id="Shape"/><path d="M33.643 18.266h-.312a1.56 1.56 0 0 0 0 3.119h.312a1.56 1.56 0 0 0 0-3.119z" id="Path"/></g></g></g></svg>
